X:59
T:King of Prussia's Tamborine. JJo8.059
%%VWML:JohnsonVol8-2184-p30-0
F:http://www.vwml.org/record/JohnsonVol8/2184/p30
Z:Transcribed by Simon Furey and Lewis Jones
Z:vmp.Simon Wilson 2013 www.village-music-project.org.uk
Z:Dance added by John Chambers 2017
M:2/4
L:1/8
%Q:1/4=100
K:A
|:\
B/c/d/B/ Aa | edcB |\
A/B/c/B/ Aa | edc2 :|\
|:\
BB2B- | BB2B/c/ |
dcBA | GFE2 |\
ee2e- | ee2f/g/ |\
adcB | A4 :|
W: The 1st Cu. cast off one Cu. .|
W:and up again ..| 1st Man set
W:across and turn .| the 1st Wo.
W:do the same ..|
W:
T:King of Prussia's Tamborine (2nd Part). JJo8.060
P: 2d Part
B:J.Johnson Choice Collection Vol 8 1758
Z:vmp.Simon Wilson 2013 www.village-music-project.org.uk
Z:Dance added by John Chambers 2017
M:2/4
L:1/8
%Q:1/4=100
N:Printed next to first part in book,
N:obviously not meant as a second voice to the tune,
N:as the dance and the key are different!
K:Am
|:\
A/B/c/B/ Af | edcB |\
A/B/c/B/ Af | e^de2 :|\
|:\
ee2e | ed/^c/d2 |
dd2d | dc/B/c2 |\
cB/A/{f}e2 | cB/A/ {^g}a2 |\
cB/A/ E^G | A4 :|
W: The 1st Man set across & not
W:turn .| the Wo. the same ..|
W:cross over half figure and
W:Right and Left ..|
W:
